X:1
T:A minor              Jacob French, 1789
T:The New-England Primer, ca. 1691
T:Funeral Hymn
T:Transcribed from  The New American Melody, 1789.
%%score [ 1 2 3 4 ]
L:1/8
Q:1/4=90
M:2/2
K:C
V:1 treble nm="Tr." snm="Tr."
V:2 treble nm="C." snm="C."
V:3 treble-8 nm="T." snm="T."
V:4 bass nm="B." snm="B."
V:1
 A4 A2 c2 | Bc d2 e2 B2 | (c4 B4) | c8 | c2 B2 (3(A2 B2 c2) | (d6 c2) | B8 | ^G4 Ac BA | %8
w: ||||||||
 B2 c2 B2 A2 | ^G8 | e4 d2 c2 | B4 B4 | A8 |: z8 | z8 | z4 c4 | Bc d2 G2 GA | ^G6 AB | %18
w: |||||||A-|wa- * kened be to *|me; So *|
 c2 A2 B2 c2 | d2 e2 ed cB | A4 d4 | c4 B4 | A8 :| %23
w: that by ear- ly|grace I might * for *|death pre-|pa- red|be.|
V:2
 E4 E2 E2 | E2 F2 G2 GF | E8 | E8 | E2 ED C4 | F8 | E8 | E4 EF G2 | G2 C2 F2 E2 | E8 | G4 F2 F2 | %11
w: I in the|bu- rying place may *|see|Graves|shor- ter * there|than|I:|From death's * ar-|rest no age is|free;|Young chil- dren|
 E4 E4 | E8 |: z4 E4 | GF ED C2 D2 | E2 E2 E2 E2 | E2 A2 GF ED | E6 EF | G2 A2 D2 E2 | %19
w: too may|die.|My|God, * may * such an|aw- ful sight A-|wa- kened be * to *|me; So *|that by ear- ly|
 F2 E2 E2 E2 | E4 G4 | E4 E4 | E8 :| %23
w: grace I might for|death pre-|pa- red|be.|
V:3
 A4 E2 A2 | G2 F2 E2 D2 | E8 | G8 | E2 E2 A4 | (B6 A2) | ^G8 | B4 c2 d2 | e2 A2 d2 c2 | B8 | %10
w: ||||||||||
 c4 B2 A2 | E4 ^G4 | A8 |: c4 B2 A2 | E2 cB A2 G2 | A6 ef | g2 f2 ed c2 | B6 cd | e2 c2 f2 e2 | %19
w: |||My God, may|such an * aw- ful|sight A- *|wa- kened be * to|me; So *|that by ear- ly|
 d2 c2 B2 AB | c4 B4 | A4 ^G4 | A8 :| %23
w: grace I might for *|death pre-|pa- red|be.|
V:4
 A,,4 A,,2 A,,2 | E,2 D,2 C,2 B,,2 | (A,,4 E,4) | C,8 | C,2 E,2 F,4 | D,8 | E,8 | E,4 A,2 G,F, | %8
 E,2 F,E, D,2 A,,2 | E,8 | C,4 D,2 D,2 | E,4 E,4 | A,,8 |: A,4 E,2 A,2 | G,2 A,B, C2 B,2 | %15
 A,6 A,2 | E,2 D,2 C,D, E,F, | E,6 [A,,A,]2 | E,2 F,>E, D,2 C,2 | C,2 A,,2 E,2 E,2 | %20
 [A,,A,]4 [G,,G,]4 | [A,,A,]4 E,4 | A,,8 :| %23

